X: 42
T:Robin Hood. WCl.42
M:C
L:1/8
Q:100
S:William Clarke MS,Lincoln,1770.
R:Air
O:Lincoln
A:England
Z:vmp.Barry Callaghan
K:G
D|E2 cA F2 DF|G2 ec {c}B3d|
(d2g)e (d2g)e|(de/2d/2) cB {B}A3 f|!
(ge^cA) d2 AF|(GF/2G/2) AA D2zd|
(dB) G=F EGzG|ecAG (F/2G/2A)zB|!
(cc/2d/2)ec (BB/2c/2)dG|(AB)(cd) e3f|
g2 (d/2e/2f/2d/2) g2 dB|(cB/2c/2) dD G2z||
